X: 19841
T: Jerry's Pipe
R: jig
M: 6/8
K: Edorian
BAF E3|B2 B Bcd|BAF GEG|FDD FF/G/A|
BAF E2 D|EE/F/G B2 c|dee edB|BAF E2:|
Bee Bee|AF/G/A B2 d|Bed ceA|BAF DF/G/A|
Bee B2 e|AF/G/A B2 c|dee edB|BAF E2:|

